X:406
T:Bourree Carre de la Chatre
Z:Jack Campin, http://www.campin.me.uk/
F:Jack Campin's Nine-Note Tunebook
% last edit 03-02-2013
A:Berry
M:2/4
L:1/16
Q:1/4=122
K:C
G2|C3D E2F2|G4   G4  |A3B c2A2|G3F  E2D2|
   C3D E2F2|G4   G4  |A3B c2A2|G6      :|
G2|E3C E2G2|FGFE D2E2|F3E F2A2|GAGF E2G2|
   E3C E2G2|FGFE D2E2|F3G A2B2|c6      :|

